dist/svg/task.svg

<!-- Generated by Trend Micro Style Portal -->
<svg version="1.1" xmlns="http://www.w3.org/2000/svg" width="16" height="16" viewBox="0 0 16 16">
  <title>task</title>
  <path fill="rgb(34,34,34)" d="M14 1h-1v2h-10v-2h-1c-0.552 0-1 0.448-1 1v0 13c0 0.552 0.448 1 1 1v0h12c0.552 0 1-0.448 1-1v0-13c0-0.552-0.448-1-1-1v0zM12 11h-8v-1h8v1zM12 9h-8v-1h8v1zM12 7h-8v-1h8v1zM12 2h-8v-2h8v2z"></path>
</svg>

<svg width="16" height="16" viewBox="0 0 16 16" fill="rgb(34, 34, 34)" xmlns="http://www.w3.org/2000/svg"><title>task</title><path d="M14 1H13V3H3V1H2C1.448 1 1 1.448 1 2V15C1 15.552 1.448 16 2 16H14C14.552 16 15 15.552 15 15V2C15 1.448 14.552 1 14 1ZM12 11H4V10H12V11ZM12 9H4V8H12V9ZM12 7H4V6H12V7ZM12 2H4V0H12V2Z" fill="rgb(34, 34, 34)" fill-opacity="1.00"/></svg>
